X: 3
T: Loopty Lou
T: Loopy Lou
M: 9/8
L: 1/8
R: slip jig
K: Dmaj
|: DED A2 F A3 | DED A2 F E3 | 
DED A2 F A3 | ABA GFE D3 :|
d2 d d2 B A3 | d2 d d2 F E3 |
d2 d d2 B A3 |[1 A2 A GFE D3 :|[2 A2 G F2 E G3 |]
